!!!!SEGMENT: pl-wtm--r-704-m--019_moniuszko-stanislaw--widma-no-13.krn
!!!cenid: 18xx:3074
!!!COM: Moniuszko, Stanisław
!!!COM-rismid: pe30008351
!!!CDT: 1819/05/05-1872/06/04
!!!CNT: Polish
!!!GTL: Widma
!!!OTL: No. 13
!!!OMV: 019
!!!PDT: 1852
!!!AGN: Secular
!!!SMS-siglum: PL-Wtm
!!!SMS-shelfmark: R 704/M
!!!SMS-shelfwork: G
!!!SMS-variant:
!!!SMS-altvar:
!!!NIFC-rismid: 1001093778
!!!URL-scan: http://repozytorium.nifc.pl/skany/pl-wtm-nut--r704m
!!!ONB-nifc: UWAGA: skany 0065-0067. Nie wpisywać tekstu rosyjskiego i samodzielnych dialogów poza krótkimi didaskaliami.
!!!OMD: Modto
**kern	**kern	**dynam	**kern	**text	**text	**dynam	**kern	**text	**text	**text	**dynam	**kern	**text	**text	**dynam	**kern	**text	**text	**dynam	**kern	**text	**text	**dynam
*part6	*part6	*part6	*part5	*part5	*part5	*part5	*part4	*part4	*part4	*part4	*part4	*part3	*part3	*part3	*part3	*part2	*part2	*part2	*part2	*part1	*part1	*part1	*part1
*staff7	*staff6	*	*staff5	*staff5	*staff5	*	*staff4	*staff4	*staff4	*staff4	*	*staff3	*staff3	*staff3	*	*staff2	*staff2	*staff2	*	*staff1	*staff1	*staff1	*
*	*	*	*group1	*	*	*	*group1	*	*	*	*	*group1	*	*	*	*group1	*	*	*	*	*	*	*
*Iempty	*Iempty	*	*Iempty	*	*	*	*Iempty	*	*	*	*	*Iempty	*	*	*	*Iempty	*	*	*	*Ivox	*	*	*
*I"F: P:	*I"F: P:	*	*I""Chór!	*	*	*	*I""Chór!	*	*	*	*	*I""Chór!	*	*	*	*I""Chór!	*	*	*	*I"Guślarz	*	*	*
*clefF4	*clefG2	*	*clefF4	*	*	*	*clefG2	*	*	*	*	*clefG2	*	*	*	*clefG2	*	*	*	*clefF4	*	*	*
*	*	*	*	*	*	*	*ITrd8c12	*	*	*	*	*	*	*	*	*	*	*	*	*	*	*	*
*k[]	*k[]	*	*k[]	*	*	*	*k[]	*	*	*	*	*k[]	*	*	*	*k[]	*	*	*	*k[]	*	*	*
*d:	*d:	*	*d:	*	*	*	*d:	*	*	*	*	*d:	*	*	*	*d:	*	*	*	*d:	*	*	*
*M3/4	*M3/4	*	*M3/4	*	*	*	*M3/4	*	*	*	*	*M3/4	*	*	*	*M3/4	*	*	*	*M3/4	*	*	*
*	*	*	*	*	*	*	*	*	*	*	*	*	*	*	*	*	*	*	*	*	*	*color:red	*
=1	=1	=1	=1	=1	=1	=1	=1	=1	=1	=1	=1	=1	=1	=1	=1	=1	=1	=1	=1	=1	=1	=1	=1
!	!LO:TX:a:B:t=Modto	!	!	!	!	!	!	!	!	!	!	!	!	!	!	!	!	!	!	!	!	!	!
2.r	8d/L	.	2.r	.	.	.	2.r	.	.	.	.	2.r	.	.	.	2.r	.	.	.	8D\	A	Ma	.
.	8f/J	.	.	.	.	.	.	.	.	.	.	.	.	.	.	.	.	.	.	8F\	kto	chi	.
.	4.a/	.	.	.	.	.	.	.	.	.	.	.	.	.	.	.	.	.	.	4.A\	pro-	sor-	.
.	8g/	.	.	.	.	.	.	.	.	.	.	.	.	.	.	.	.	.	.	8G\	-śby	-te e'al-	.
=2	=2	=2	=2	=2	=2	=2	=2	=2	=2	=2	=2	=2	=2	=2	=2	=2	=2	=2	=2	=2	=2	=2	=2
4r	8f/L	.	2.r	.	.	.	2.r	.	.	.	.	2.r	.	.	.	2.r	.	.	.	8F\	nie	-la	.
.	8d/J	.	.	.	.	.	.	.	.	.	.	.	.	.	.	.	.	.	.	8D\	po-	mia	.
(4E 4EE/	(4e/	.	.	.	.	.	.	.	.	.	.	.	.	.	.	.	.	.	.	4E\	-słu-	vo-	.
8AA/)	8A/)	.	.	.	.	.	.	.	.	.	.	.	.	.	.	.	.	.	.	8AA/	-cha,	-ce	.
8r	8r	.	.	.	.	.	.	.	.	.	.	.	.	.	.	.	.	.	.	8r	.	.	.
=3	=3	=3	=3	=3	=3	=3	=3	=3	=3	=3	=3	=3	=3	=3	=3	=3	=3	=3	=3	=3	=3	=3	=3
2.r	8d/L	.	2.r	.	.	.	2.r	.	.	.	.	2.r	.	.	.	2.r	.	.	.	8D\	w_I-	ce-	.
.	8a/J	.	.	.	.	.	.	.	.	.	.	.	.	.	.	.	.	.	.	8A\	-mie	-de-	.
.	4.a/	.	.	.	.	.	.	.	.	.	.	.	.	.	.	.	.	.	.	4.A\	Oj-	-ra	.
.	8g/	.	.	.	.	.	.	.	.	.	.	.	.	.	.	.	.	.	.	8G\	-ca,	nan-	.
=4	=4	=4	=4	=4	=4	=4	=4	=4	=4	=4	=4	=4	=4	=4	=4	=4	=4	=4	=4	=4	=4	=4	=4
4r	8f/L	.	2.r	.	.	.	2.r	.	.	.	.	2.r	.	.	.	2.r	.	.	.	8F\	Sy-	-zi	.
.	8d/J	.	.	.	.	.	.	.	.	.	.	.	.	.	.	.	.	.	.	8D\	-na,	la	.
(4E 4EE/	(4e/	.	.	.	.	.	.	.	.	.	.	.	.	.	.	.	.	.	.	4E\	Du-	Cro-	.
8AA/)	8A/)	.	.	.	.	.	.	.	.	.	.	.	.	.	.	.	.	.	.	8AA/	-cha!	-ce	.
8r	8r	.	.	.	.	.	.	.	.	.	.	.	.	.	.	.	.	.	.	8r	.	.	.
=5	=5	=5	=5	=5	=5	=5	=5	=5	=5	=5	=5	=5	=5	=5	=5	=5	=5	=5	=5	=5	=5	=5	=5
4D^\	4d^/	.	2.r	.	.	.	2.r	.	.	.	.	2.r	.	.	.	2.r	.	.	.	8r	.	.	.
.	.	.	.	.	.	.	.	.	.	.	.	.	.	.	.	.	.	.	.	8D\	czy	del	.
8E\L	8e/L	.	.	.	.	.	.	.	.	.	.	.	.	.	.	.	.	.	.	8E\	wi-	San-	.
8F\	8f/	.	.	.	.	.	.	.	.	.	.	.	.	.	.	.	.	.	.	8F\	-dzisz	-to	.
8G\	8g/	.	.	.	.	.	.	.	.	.	.	.	.	.	.	.	.	.	.	8G\	pań-	Re-	.
8A\J	8a/J	.	.	.	.	.	.	.	.	.	.	.	.	.	.	.	.	.	.	8A\	-ski	-den-	.
!!LO:LB:g=original
=6	=6	=6	=6	=6	=6	=6	=6	=6	=6	=6	=6	=6	=6	=6	=6	=6	=6	=6	=6	=6	=6	=6	=6
*2\right	*2\right	*	*	*	*	*	*	*	*	*	*	*	*	*	*	*	*	*	*	*2\right	*	*	*
2.B;\	2.b;\	.	2.r;	.	.	.	2.r;	.	.	.	.	2.r;	.	.	.	2.r;	.	.	.	2.B;\	krzyż!	-tor!	.
=7	=7	=7	=7	=7	=7	=7	=7	=7	=7	=7	=7	=7	=7	=7	=7	=7	=7	=7	=7	=7	=7	=7	=7
*	*^	*	*	*	*	*	*	*	*	*	*	*	*	*	*	*	*	*	*	*	*	*	*
*	*	*	*	*	*	*	*	*	*	*color:red	*	*	*	*	*	*	*	*	*color:red	*	*	*	*	*
4r	4r	4ryy	.	2.r	.	.	.	4r	.	.	.	.	2.r	.	.	.	4a/	nie	Se	.	2.r	.	.	.
(4C#X\	(4e/	[2A\	.	.	.	.	.	4r	.	.	.	.	.	.	.	.	8e/	chcia-	l'in-	.	.	.	.	.
.	.	.	.	.	.	.	.	.	.	.	.	.	.	.	.	.	8g/	-łaś	-can-	.	.	.	.	.
4D\	4f/	.	.	.	.	.	.	4d\	nie	par-	.	.	.	.	.	.	4f/	ja-	-te-	.	.	.	.	.
=8	=8	=8	=8	=8	=8	=8	=8	=8	=8	=8	=8	=8	=8	=8	=8	=8	=8	=8	=8	=8	=8	=8	=8	=8
*	*	*	*	*	*	*color:red	*	*	*	*	*	*	*	*	*color:red	*	*	*	*	*	*	*	*	*
4F\	4a/	4A\]	.	4r	.	.	.	8F/	chcia-	-ti	.	.	4r	.	.	.	8d/	-dła,	-si-	.	2.r	.	.	.
.	.	.	.	.	.	.	.	8A/	-łaś	lon-	.	.	.	.	.	.	8f/	na-	-no_è	.	.	.	.	.
4E\	4g#X 4d 4B/	2ryy	.	4E\	nie	par-	.	(4G#X/	ja-	-ta-	.	.	8B/	a	lon-	.	4e/	-po-	va-	.	.	.	.	.
.	.	.	.	.	.	.	.	.	.	.	.	.	8r	.	.	.	.	.	.	.	.	.	.	.
8AA/)	8a 8c#X 8A/)	.	.	8C#X/	chcia-	-ti	.	8A/)	-dła	-no,	.	.	[4A/	kysz!	-tan	.	8A/	-ju	-no	.	.	.	.	.
8r	8r	.	.	8AA/	-łaś	lon-	.	8r	.	.	.	.	.	.	.	.	8r	.	.	.	.	.	.	.
=9	=9	=9	=9	=9	=9	=9	=9	=9	=9	=9	=9	=9	=9	=9	=9	=9	=9	=9	=9	=9	=9	=9	=9	=9
*	*	*	*	*2\right	*	*	*	*	*	*	*	*	*	*	*	*	*	*	*	*	*	*	*	*
4r	4r	4ryy	.	2.A\	ja-	-ta-	.	4r	.	.	.	.	8A/]	.	.	.	4a/	zos-	par-	.	2.r	.	.	.
.	.	.	.	.	.	.	.	.	.	.	.	.	8r	.	.	.	.	.	.	.	.	.	.	.
(4C#X\	(4e/	[2A\	.	.	.	.	.	4r	.	.	.	.	2r	.	.	.	8e/	-taw-	-ti	.	.	.	.	.
.	.	.	.	.	.	.	.	.	.	.	.	.	.	.	.	.	8g/	-że	da	.	.	.	.	.
4D\	4f/	.	.	.	.	.	.	4d\	zo-	par-	[[a-	.	.	.	.	.	4f/	nas	noi	.	.	.	.	.
=10	=10	=10	=10	=10	=10	=10	=10	=10	=10	=10	=10	=10	=10	=10	=10	=10	=10	=10	=10	=10	=10	=10	=10	=10
*	*	*	*	*	*	*	*	*	*	*	*	*	*	*	*	*	*^	*	*	*	*	*	*	*
!	!	!	!	!	!	!	!	!	!	!	!	!	!	!	!	!	!	!LO:TX:t=P:problem:stem.color=red	!	!	!	!	!	!	!
4F\	4a/	4A\]	.	8A\	-dła.	-no	.	8F/	-staw-	-ti	-ni	.	4r	.	.	.	(<8d/	8d/L	w_po-	lon-	.	2.r	.	.	.
.	.	.	.	8r	.	.	.	8A/	-że	lon-	na-	.	.	.	.	.	8f/)	8f/J	.	.	.	.	.	.	.
4E\	4g#X/	4d 4B\	.	4E\	zos-	lon-	.	(4G#X/	nas	-ta-	-po-	.	8B/	a	lon-	.	4e/	2ryy	-ko-	-ta-	.	.	.	.	.
.	.	.	.	.	.	.	.	.	.	.	.	.	8r	.	.	.	.	.	.	.	.	.	.	.	.
8AA/)	8a/)	8c#X\	.	8C#X/	-taw-	-ta-	.	8A/)	.	-no,	-ju]]	.	4A/	kysz!	-tan,	.	8A/	.	-ju.	-no	.	.	.	.	.
8r	8r	8ryy	.	8AA/	-że!	-no	.	8r	.	.	.	.	.	.	.	.	8r	.	.	.	.	.	.	.	.
*	*v	*v	*	*	*	*	*	*	*	*	*	*	*	*	*	*	*	*	*	*	*	*	*	*	*
!!LO:LB:g=original
=11	=11	=11	=11	=11	=11	=11	=11	=11	=11	=11	=11	=11	=11	=11	=11	=11	=11	=11	=11	=11	=11	=11	=11	=11
*	*	*	*^	*	*	*	*^	*	*	*	*	*^	*	*	*	*	*	*	*	*	*	*	*	*
!	!	!	!	!	!	!	!	!	!	!	!	!	!	!	!LO:ACC:color=grey	!	!	!	!	!LO:TX:t=P:problem:stem.color=red	!	!	!	!	!	!	!
!	!	!	!	!LO:TX:t=P:problem:dot.color=red	!	!	!	!	!LO:TX:t=P:problem:dot.color=red	!	!	!	!	!	!LO:TX:t=P:problem:dot.color=red	!	!	!	!	!LO:TX:t=P:problem:dot.color=red	!	!	!	!	!	!	!
8F#X 8D\	8d 8c 8A</	.	8D/	8.D/	nas,	.	.	8A/	8.A/	a	van-	.	.	8f#X/	8.f#/	a	.	.	8dd\	8.dd/	a	van-	.	2.r	.	.	.
8r	8r	.	8r	.	.	.	.	8r	.	.	.	.	.	8r	.	.	.	.	8r	.	.	.	.	.	.	.	.
.	.	.	.	16D\@	.	.	.	.	16A/@	.	-ne	.	.	.	16f#/@	.	.	.	.	16dd/@	.	-ne	.	.	.	.	.
*	*	*	*	*	*	*	*	*2\right	*	*	*	*	*	*	*	*	*	*	*	*	*	*	*	*	*	*	*
!	!	!	!	!	!	!	!	!	!	!	!	!	!	!LO:ACC:color=grey	!	!	!	!	!	!	!	!	!	!	!	!	!
4rFF	2d 2B 2G< 2Fn< 2D</	.	2D 2GG^>/	2ryy	kysz!	.	.	2B^\	2ryy	kysz!	fuor!	.	.	2fn^>/	2ryy	kysz!	.	.	2g^>/	2ryy	kysz!	fuor,	.	.	.	.	.
8.GGG/L	.	.	.	.	.	.	.	.	.	.	.	.	.	.	.	.	.	.	.	.	.	.	.	.	.	.	.
16GGG/Jk	.	.	.	.	.	.	.	.	.	.	.	.	.	.	.	.	.	.	.	.	.	.	.	.	.	.	.
=12	=12	=12	=12	=12	=12	=12	=12	=12	=12	=12	=12	=12	=12	=12	=12	=12	=12	=12	=12	=12	=12	=12	=12	=12	=12	=12	=12
!	!	!	!	!	!	!	!	!	!	!	!	!	!	!	!	!	!	!	!	!LO:TX:t=P:problem:stem.color=red	!	!	!	!	!	!	!
!	!	!	!	!LO:TX:t=P:problem:dot.color=red	!	!	!	!	!LO:TX:t=P:problem:dot.color=red	!	!	!	!	!	!LO:TX:t=P:problem:dot.color=red	!	!	!	!	!LO:TX:t=P:problem:dot.color=red	!	!	!	!	!	!	!
8CC/	8c 8B-X 8G< 8E</	.	8C/	8.C/	a	.	.	8c\	8.c\	a	van-	.	.	8e/	8.e/	a	.	.	8cc\	8.cc/	a	van-	.	2.r	.	.	.
8r	8r	.	8r	.	.	.	.	8r	.	.	.	.	.	8r	.	.	.	.	8r	.	.	.	.	.	.	.	.
.	.	.	.	16C\@	.	.	.	.	16c/@	.	-ne	.	.	.	16e/@	.	.	.	.	16cc/@	.	-ne	.	.	.	.	.
4rFF	2c 2A< 2F</	.	2C 2FF^>/	2ryy	kysz!	.	.	2A^\	2ryy	kysz!	fuor!	.	.	2c^>/	2ryy	kysz!	.	.	2f^>/	2ryy	kysz!	fuor	.	.	.	.	.
8.FFF/L	.	.	.	.	.	.	.	.	.	.	.	.	.	.	.	.	.	.	.	.	.	.	.	.	.	.	.
16FFF/Jk	.	.	.	.	.	.	.	.	.	.	.	.	.	.	.	.	.	.	.	.	.	.	.	.	.	.	.
=13	=13	=13	=13	=13	=13	=13	=13	=13	=13	=13	=13	=13	=13	=13	=13	=13	=13	=13	=13	=13	=13	=13	=13	=13	=13	=13	=13
!	!	!	!	!	!	!	!LO:DY:a	!	!	!	!	!	!LO:DY:a	!	!	!	!	!LO:DY:a	!	!LO:TX:t=P:problem:stem.color=red	!	!	!LO:DY:a:t=ppp	!	!	!	!
!	!	!LO:DY:a	!	!LO:TX:t=P:problem:dot.color=red	!	!	!	!	!LO:TX:t=P:problem:dot.color=red	!	!	!	!	!	!LO:TX:t=P:problem:dot.color=red	!	!	!	!	!LO:TX:t=P:problem:dot.color=red	!	!	!	!	!	!	!
8AAA/	8c#X 8G< 8E</	ppp	8AA/	8.AA/	a	.	ppp	8E/	8.E/	a	van-	.	ppp	8c#X/	8.c#/	a	.	ppp	8a\	8.a/	a	van-	ppp	2.r	.	.	.
8r	8r	.	8r	.	.	.	.	8r	.	.	.	.	.	8r	.	.	.	.	8r	.	.	.	.	.	.	.	.
.	.	.	.	16AA/@	.	.	.	.	16E/@	.	-ne	.	.	.	16c#/@	.	.	.	.	16a/@	.	-ne	.	.	.	.	.
*8ba	*	*	*	*	*	*	*	*	*	*	*	*	*	*	*	*	*	*	*	*	*	*	*	*	*	*	*
!	!LO:ACC:color=dodgerblue	!	!	!	!	!	!	!	!	!	!	!	!	!	!	!	!	!	!	!	!	!	!	!	!	!	!
2DDD;<\	2d 2F#X< 2D<;/	.	2D 2AA 2DD;/	2ryy	kysz!	.	.	2F#X;/	2ryy	kysz!	fuor!	.	.	2A;/	2ryy	kysz!	.	.	2d;/	2ryy	kysz!	fuor!	.	.	.	.	.
*X8ba	*	*	*	*	*	*	*	*	*	*	*	*	*	*	*	*	*	*	*	*	*	*	*	*	*	*	*
*	*	*	*v	*v	*	*	*	*	*	*	*	*	*	*v	*v	*	*	*	*v	*v	*	*	*	*	*	*	*
*	*	*	*	*	*	*	*v	*v	*	*	*	*	*	*	*	*	*	*	*	*	*	*	*	*
=14||	=14||	=14||	=14||	=14||	=14||	=14||	=14||	=14||	=14||	=14||	=14||	=14||	=14||	=14||	=14||	=14||	=14||	=14||	=14||	=14||	=14||	=14||	=14||
*M4/4	*M4/4	*	*M4/4	*	*	*	*M4/4	*	*	*	*	*M4/4	*	*	*	*M4/4	*	*	*	*M4/4	*	*	*
*met(c)	*met(c)	*	*met(c)	*	*	*	*met(c)	*	*	*	*	*met(c)	*	*	*	*met(c)	*	*	*	*met(c)	*	*	*
!	!	!	!LO:TX:a:Bi:t=Maestoso.	!	!	!	!	!	!	!	!	!	!	!	!	!	!	!	!	!LO:TX:a:i:t=(&colon; Widmo znika &colon;):rj	!	!	!
2GG 2GGG/	[4.ddd 4.bb 4.gg 4.dd\	f >	1r	.	.	.	1r	.	.	.	.	1r	.	.	.	1r	.	.	.	1r	.	.	.
.	32ddd\LLL]	.	.	.	.	.	.	.	.	.	.	.	.	.	.	.	.	.	.	.	.	.	.
.	32ccc\	.	.	.	.	.	.	.	.	.	.	.	.	.	.	.	.	.	.	.	.	.	.
.	32bb\	.	.	.	.	.	.	.	.	.	.	.	.	.	.	.	.	.	.	.	.	.	.
.	32aa\JJJ	]	.	.	.	.	.	.	.	.	.	.	.	.	.	.	.	.	.	.	.	.	.
4BB 4BBB/	4gg 4dd\	.	.	.	.	.	.	.	.	.	.	.	.	.	.	.	.	.	.	.	.	.	.
4D 4DD/	4aa 4ff#X 4dd\	.	.	.	.	.	.	.	.	.	.	.	.	.	.	.	.	.	.	.	.	.	.
!!LO:LB:g=original
=15	=15	=15	=15	=15	=15	=15	=15	=15	=15	=15	=15	=15	=15	=15	=15	=15	=15	=15	=15	=15	=15	=15	=15
4G 4GG\	4bb 4gg 4dd\	.	1r	.	.	.	1r	.	.	.	.	1r	.	.	.	1r	.	.	.	1r	.	.	.
8.EL 8.GG 8.EE/	8.ggL 8.ee 8.b\	.	.	.	.	.	.	.	.	.	.	.	.	.	.	.	.	.	.	.	.	.	.
16EJk 16GG 16EE/	16ggJk 16ee 16b\	.	.	.	.	.	.	.	.	.	.	.	.	.	.	.	.	.	.	.	.	.	.
4AA 4AAA/	4ccc 4aa 4ee 4cc\	.	.	.	.	.	.	.	.	.	.	.	.	.	.	.	.	.	.	.	.	.	.
4D 4AA 4DD/	4aa 4ff#X 4dd\	.	.	.	.	.	.	.	.	.	.	.	.	.	.	.	.	.	.	.	.	.	.
=16	=16	=16	=16	=16	=16	=16	=16	=16	=16	=16	=16	=16	=16	=16	=16	=16	=16	=16	=16	=16	=16	=16	=16
!	!	!	!	!	!	!	!	!	!	!	!	!	!	!	!	!	!	!	!	!LO:TX:a:i:t=Guślarz.:note=podkreślone:rj	!	!	!
!	!	!	!	!	!	!	!	!	!	!	!	!	!	!	!	!	!	!	!	!LO:TX:a:t=L'incant.:note=podkreślone:color=red:rj	!	!	!
2GG 2GGG/	2bb 2gg 2dd\	.	1r	.	.	.	1r	.	.	.	.	1r	.	.	.	1r	.	.	.	2r	.	.	.
*	*	*	*	*	*	*	*	*	*	*	*	*	*	*	*	*	*	*	*	*	*	*above	*
!	!	!	!	!	!	!	!	!	!	!	!	!	!	!	!	!	!	!	!	!	!	!	!LO:DY:a
2r	2r	.	.	.	.	.	.	.	.	.	.	.	.	.	.	.	.	.	.	4.B\	Te-	U-	f
.	.	.	.	.	.	.	.	.	.	.	.	.	.	.	.	.	.	.	.	8c\	-raz	-na	.
=17	=17	=17	=17	=17	=17	=17	=17	=17	=17	=17	=17	=17	=17	=17	=17	=17	=17	=17	=17	=17	=17	=17	=17
1r	1r	.	1r	.	.	.	1r	.	.	.	.	1r	.	.	.	1r	.	.	.	4.d\	wszy-	tut-	.
.	.	.	.	.	.	.	.	.	.	.	.	.	.	.	.	.	.	.	.	8B\	-stkie	-te ad	.
.	.	.	.	.	.	.	.	.	.	.	.	.	.	.	.	.	.	.	.	4G\	du-	u-	.
.	.	.	.	.	.	.	.	.	.	.	.	.	.	.	.	.	.	.	.	4D\	-sze	-na ad	.
=18	=18	=18	=18	=18	=18	=18	=18	=18	=18	=18	=18	=18	=18	=18	=18	=18	=18	=18	=18	=18	=18	=18	=18
1r	1r	.	1r	.	.	.	1r	.	.	.	.	1r	.	.	.	1r	.	.	.	2BB/	ra-	u-	.
.	.	.	.	.	.	.	.	.	.	.	.	.	.	.	.	.	.	.	.	8GG/	-zem,	-na	.
.	.	.	.	.	.	.	.	.	.	.	.	.	.	.	.	.	.	.	.	8r	.	.	.
.	.	.	.	.	.	.	.	.	.	.	.	.	.	.	.	.	.	.	.	8D\	wszy-	l'al-	.
.	.	.	.	.	.	.	.	.	.	.	.	.	.	.	.	.	.	.	.	8E\	-stkie	-me er-	.
=19	=19	=19	=19	=19	=19	=19	=19	=19	=19	=19	=19	=19	=19	=19	=19	=19	=19	=19	=19	=19	=19	=19	=19
*	*	*	*	*	*	*	*	*	*	*	*	*	*	*	*	*	*	*	*	*^	*	*	*
!	!	!	!	!	!	!	!	!	!	!	!	!	!	!	!	!	!	!	!	!	!LO:ART:color=red	!	!	!
1r	1r	.	1r	.	.	.	1r	.	.	.	.	1r	.	.	.	1r	.	.	.	4Fn^\	4Fn|>\	i	-ran-	.
!	!	!	!	!	!	!	!	!	!	!	!	!	!	!	!	!	!	!	!	!	!LO:ART:color=red	!	!	!
.	.	.	.	.	.	.	.	.	.	.	.	.	.	.	.	.	.	.	.	4G^\	4G|>\	ka-	-te in	.
!	!	!	!	!	!	!	!	!	!	!	!	!	!	!	!	!	!	!	!	!	!LO:ART:color=red	!	!	!
.	.	.	.	.	.	.	.	.	.	.	.	.	.	.	.	.	.	.	.	4A^\	4A|>\	-żdą	tor-	.
!LO:TX:a:t=V&colon; S&colon;	!	!	!	!	!	!	!	!	!	!	!	!	!	!	!	!	!	!	!	!LO:TX:b:t=V&colon; S&colon;	!LO:ART:color=red	!	!	!
.	.	.	.	.	.	.	.	.	.	.	.	.	.	.	.	.	.	.	.	4B^\	4B|>\	z_o-	-men-	.
*	*	*	*	*	*	*	*	*	*	*	*	*	*	*	*	*	*	*	*	*v	*v	*	*	*
!!LO:PB:g=original
=20	=20	=20	=20	=20	=20	=20	=20	=20	=20	=20	=20	=20	=20	=20	=20	=20	=20	=20	=20	=20	=20	=20	=20
*	*	*	*	*	*	*	*	*	*	*	*	*	*	*	*	*	*	*	*	*	*	*below	*
!	!	!LO:DY:rj	!	!	!	!	!	!	!	!	!	!	!	!	!	!	!	!	!	!	!	!	!
2E 2GG 2EE\	[4.gg 4.cc 4.g^<\	f	1r	.	.	.	1r	.	.	.	.	1r	.	.	.	1r	.	.	.	2c\	-so-	-ni-	.
.	32gg\LLL]	.	.	.	.	.	.	.	.	.	.	.	.	.	.	.	.	.	.	.	.	.	.
.	32ff\	.	.	.	.	.	.	.	.	.	.	.	.	.	.	.	.	.	.	.	.	.	.
.	32ee\	.	.	.	.	.	.	.	.	.	.	.	.	.	.	.	.	.	.	.	.	.	.
.	32dd\JJJ	.	.	.	.	.	.	.	.	.	.	.	.	.	.	.	.	.	.	.	.	.	.
4A 4E 4AA\	4cc\	.	.	.	.	.	.	.	.	.	.	.	.	.	.	.	.	.	.	4C/	-bna	-te,	.
4G| 4GG/	4dd| 4b 4g\	.	.	.	.	.	.	.	.	.	.	.	.	.	.	.	.	.	.	4r	.	.	.
=21	=21	=21	=21	=21	=21	=21	=21	=21	=21	=21	=21	=21	=21	=21	=21	=21	=21	=21	=21	=21	=21	=21	=21
4C 4CC/	4ee| 4cc 4g\	.	1r	.	.	.	1r	.	.	.	.	1r	.	.	.	1r	.	.	.	1r	.	.	.
8.EL 8.EE/	8.ccL 8.g/	.	.	.	.	.	.	.	.	.	.	.	.	.	.	.	.	.	.	.	.	.	.
16EJk 16EE/	16ccJk 16g/	.	.	.	.	.	.	.	.	.	.	.	.	.	.	.	.	.	.	.	.	.	.
4D 4DD/	4ff 4a 4f|/	.	.	.	.	.	.	.	.	.	.	.	.	.	.	.	.	.	.	.	.	.	.
4G 4GG|/	4dd 4b 4g|/	.	.	.	.	.	.	.	.	.	.	.	.	.	.	.	.	.	.	.	.	.	.
=22	=22	=22	=22	=22	=22	=22	=22	=22	=22	=22	=22	=22	=22	=22	=22	=22	=22	=22	=22	=22	=22	=22	=22
*	*	*	*	*	*	*	*	*	*	*	*	*	*	*	*	*	*	*	*	*^	*	*	*
!	!	!	!	!	!	!	!	!	!	!	!	!	!	!	!	!	!	!	!	!LO:TX:a:B:t=Recit&colon;	!LO:TX:t=P:problem:dopisane pod pięciolinią	!	!	!
4C 4CC|/	4ee| 4cc 4g\	.	1r	.	.	.	1r	.	.	.	.	1r	.	.	.	1r	.	.	.	8r	4r§	.	.	.
.	.	.	.	.	.	.	.	.	.	.	.	.	.	.	.	.	.	.	.	8G\	.	os-	l'ul-	.
4r	4r	.	.	.	.	.	.	.	.	.	.	.	.	.	.	.	.	.	.	8c\	8.G\§	-ta-	-ti-	.
.	.	.	.	.	.	.	.	.	.	.	.	.	.	.	.	.	.	.	.	8B\	.	-tnim	-mo	.
.	.	.	.	.	.	.	.	.	.	.	.	.	.	.	.	.	.	.	.	.	16G\§	.	.	.
2r	2r	.	.	.	.	.	.	.	.	.	.	.	.	.	.	.	.	.	.	4c^\	8.c\§	wo-	cen-	.
.	.	.	.	.	.	.	.	.	.	.	.	.	.	.	.	.	.	.	.	.	16G\§	.	.	.
.	.	.	.	.	.	.	.	.	.	.	.	.	.	.	.	.	.	.	.	8G\	8G\§	-łam	-no	.
.	.	.	.	.	.	.	.	.	.	.	.	.	.	.	.	.	.	.	.	8E\	8E\§	roz-	qui_a-	.
=23	=23	=23	=23	=23	=23	=23	=23	=23	=23	=23	=23	=23	=23	=23	=23	=23	=23	=23	=23	=23	=23	=23	=23	=23
!	!	!	!	!	!	!	!	!	!	!	!	!	!	!	!	!	!	!	!	!LO:TX:a:B:t=a tempo. Moderato.	!	!	!	!
1r	1r	.	1r	.	.	.	1r	.	.	.	.	1r	.	.	.	1r	.	.	.	2C/	2C/§	-ka-	-du-	.
.	.	.	.	.	.	.	.	.	.	.	.	.	.	.	.	.	.	.	.	8C/	2ryy	-zem,	-na;	.
.	.	.	.	.	.	.	.	.	.	.	.	.	.	.	.	.	.	.	.	8r	.	.	.	.
.	.	.	.	.	.	.	.	.	.	.	.	.	.	.	.	.	.	.	.	8c\	.	dla	sen-	.
.	.	.	.	.	.	.	.	.	.	.	.	.	.	.	.	.	.	.	.	8B\	.	was	-za in-	.
*	*	*	*	*	*	*	*	*	*	*	*	*	*	*	*	*	*	*	*	*v	*v	*	*	*
!!LO:LB:g=original
=24	=24	=24	=24	=24	=24	=24	=24	=24	=24	=24	=24	=24	=24	=24	=24	=24	=24	=24	=24	=24	=24	=24	=24
*	*^	*	*	*	*	*	*	*	*	*	*	*	*	*	*	*	*	*	*	*	*	*	*
*	*	*	*	*	*	*	*	*	*	*	*	*	*	*	*	*	*	*	*	*	*	*	*above	*
!	!LO:TX:a:B:t=Modto	!	!LO:DY:rj	!	!	!	!	!	!	!	!	!	!	!	!	!	!LO:TX:b:t=1:color=grey	!	!	!	!	!	!	!
(<1E 1C	(1a#X	4e\	p	1r	.	.	.	1r	.	.	.	.	1r	.	.	.	1r	.	.	.	4A#X\	ta	-du-	.
.	.	4g\	.	.	.	.	.	.	.	.	.	.	.	.	.	.	.	.	.	.	4A#\	bie-	-gi or-	.
.	.	4f#X\	.	.	.	.	.	.	.	.	.	.	.	.	.	.	.	.	.	.	4A#\	-sia-	-sū	.
.	.	[>4e\	.	.	.	.	.	.	.	.	.	.	.	.	.	.	.	.	.	.	4A#\	-da	ve-	.
=25	=25	=25	=25	=25	=25	=25	=25	=25	=25	=25	=25	=25	=25	=25	=25	=25	=25	=25	=25	=25	=25	=25	=25	=25
!	!	!	!	!	!	!	!	!	!	!	!	!	!	!	!	!	!LO:TX:b:t=2:color=grey	!	!	!	!	!	!	!
1F#X 1BB	2.b/	4e\]	.	1r	.	.	.	1r	.	.	.	.	1r	.	.	.	1r	.	.	.	2B\	dro-	-ni-	.
.	.	8d\L	.	.	.	.	.	.	.	.	.	.	.	.	.	.	.	.	.	.	.	.	.	.
.	.	8c#X\J	.	.	.	.	.	.	.	.	.	.	.	.	.	.	.	.	.	.	.	.	.	.
.	.	[2d\	.	.	.	.	.	.	.	.	.	.	.	.	.	.	.	.	.	.	8B\	-bna;	-te,	.
.	.	.	.	.	.	.	.	.	.	.	.	.	.	.	.	.	.	.	.	.	8r	.	.	.
.	8b/L	.	.	.	.	.	.	.	.	.	.	.	.	.	.	.	.	.	.	.	8B\	gar-	giā	.
.	8a/J	.	.	.	.	.	.	.	.	.	.	.	.	.	.	.	.	.	.	.	8A\	-ście	per	.
=26	=26	=26	=26	=26	=26	=26	=26	=26	=26	=26	=26	=26	=26	=26	=26	=26	=26	=26	=26	=26	=26	=26	=26	=26
!	!	!	!	!	!	!	!	!	!	!	!	!	!	!	!	!	!LO:TX:b:t=3:color=grey	!	!	!	!	!	!	!
1D 1BB-X	1g#X	4d\]	.	1r	.	.	.	1r	.	.	.	.	1r	.	.	.	1r	.	.	.	4.G#X\	ma-	voi	.
.	.	4f\	.	.	.	.	.	.	.	.	.	.	.	.	.	.	.	.	.	.	.	.	.	.
.	.	.	.	.	.	.	.	.	.	.	.	.	.	.	.	.	.	.	.	.	8G#\	-ku	de-	.
.	.	4e\	.	.	.	.	.	.	.	.	.	.	.	.	.	.	.	.	.	.	4.G#\	so-	-po-	.
.	.	[4d\	.	.	.	.	.	.	.	.	.	.	.	.	.	.	.	.	.	.	.	.	.	.
.	.	.	.	.	.	.	.	.	.	.	.	.	.	.	.	.	.	.	.	.	8G#\	-cze-	-sto ab-	.
=27	=27	=27	=27	=27	=27	=27	=27	=27	=27	=27	=27	=27	=27	=27	=27	=27	=27	=27	=27	=27	=27	=27	=27	=27
*	*	*	*	*	*	*	*	*	*	*	*	*	*	*	*	*	*	*	*	*	*^	*	*	*
!	!	!	!	!	!	!	!	!	!	!	!	!	!	!	!	!	!LO:TX:b:t=4:color=grey	!	!	!	!LO:T:color=grey	!	!	!	!
1E 1AA	2.a/	4d\]	.	1r	.	.	.	1r	.	.	.	.	1r	.	.	.	1r	.	.	.	[2A\	2ryy	-wi-	-bia-	.
.	.	8c\L	.	.	.	.	.	.	.	.	.	.	.	.	.	.	.	.	.	.	.	.	.	.	.
.	.	8B\J	.	.	.	.	.	.	.	.	.	.	.	.	.	.	.	.	.	.	.	.	.	.	.
!	!	!	!	!	!	!	!	!	!	!	!	!	!	!	!	!	!	!	!	!	!	!LO:TX:t=P:problem:stem.color=grey	!	!	!
!	!	!	!	!	!	!	!	!	!	!	!	!	!	!	!	!	!	!	!	!	!	!LO:TX:t=P:problem:dot.color=grey	!	!	!
.	.	[2c\	.	.	.	.	.	.	.	.	.	.	.	.	.	.	.	.	.	.	8A\	4.A/]	-cy	-mo	.
.	.	.	.	.	.	.	.	.	.	.	.	.	.	.	.	.	.	.	.	.	8r	.	.	.	.
.	8a/L	.	.	.	.	.	.	.	.	.	.	.	.	.	.	.	.	.	.	.	8A\	.	rzu-	quel	.
!	!	!	!	!	!	!	!	!	!	!	!	!	!	!	!	!	!	!	!	!	!	!LO:TX:t=P:problem:stem.color=grey	!	!	!
.	8g/J	.	.	.	.	.	.	.	.	.	.	.	.	.	.	.	.	.	.	.	8G\	8G/	-cam	ris-	.
*	*	*	*	*	*	*	*	*	*	*	*	*	*	*	*	*	*	*	*	*	*v	*v	*	*	*
=28	=28	=28	=28	=28	=28	=28	=28	=28	=28	=28	=28	=28	=28	=28	=28	=28	=28	=28	=28	=28	=28	=28	=28	=28
!	!	!	!	!	!	!	!	!	!	!	!	!	!	!	!	!	!LO:TX:b:t=5:color=grey	!	!	!	!	!	!	!
1C 1AA-X)	1f#X	4c\]	.	1r	.	.	.	1r	.	.	.	.	1r	.	.	.	1r	.	.	.	4.F#X\	w_każ-	-ti-	.
.	.	4e-X\	.	.	.	.	.	.	.	.	.	.	.	.	.	.	.	.	.	.	.	.	.	.
.	.	.	.	.	.	.	.	.	.	.	.	.	.	.	.	.	.	.	.	.	8F#\	-dy	-ro	.
.	.	4d\	.	.	.	.	.	.	.	.	.	.	.	.	.	.	.	.	.	.	4.F#\	róg	che	.
.	.	4c\)	.	.	.	.	.	.	.	.	.	.	.	.	.	.	.	.	.	.	.	.	.	.
.	.	.	.	.	.	.	.	.	.	.	.	.	.	.	.	.	.	.	.	.	8F#\	Ka-	v'_of-	.
!!LO:PB:g=original
=29	=29	=29	=29	=29	=29	=29	=29	=29	=29	=29	=29	=29	=29	=29	=29	=29	=29	=29	=29	=29	=29	=29	=29	=29
!	!	!	!	!LO:TX:b:t=6:color=grey	!	!	!	!	!	!	!	!	!	!	!	!	!LO:TX:b:t=6:color=grey	!	!	!	!LO:TX:a:B:t=A:color=dodgerblue:rj	!	!	!
*	*tremolo	*	*	*	*	*	*	*	*	*	*	*	*	*	*	*	*	*	*	*	*	*	*	*
2D 2GG/	8g/L	2B\	.	1r	.	.	.	1r	.	.	.	.	1r	.	.	.	1r	.	.	.	2G\	-pli-	-fria-	.
.	8g/	.	.	.	.	.	.	.	.	.	.	.	.	.	.	.	.	.	.	.	.	.	.	.
.	8g/	.	.	.	.	.	.	.	.	.	.	.	.	.	.	.	.	.	.	.	.	.	.	.
.	8g/J	.	.	.	.	.	.	.	.	.	.	.	.	.	.	.	.	.	.	.	.	.	.	.
2r	8g/L	2r	.	.	.	.	.	.	.	.	.	.	.	.	.	.	.	.	.	.	8G\	-cy.	-mo	.
.	8g/	.	.	.	.	.	.	.	.	.	.	.	.	.	.	.	.	.	.	.	8r	.	.	.
.	8g/	.	.	.	.	.	.	.	.	.	.	.	.	.	.	.	.	.	.	.	8G\	Bierz-	Di-	.
.	8g/J	.	.	.	.	.	.	.	.	.	.	.	.	.	.	.	.	.	.	.	8G\	-cie	-le a	.
*	*v	*v	*	*	*	*	*	*	*	*	*	*	*	*	*	*	*	*	*	*	*	*	*	*
=30	=30	=30	=30	=30	=30	=30	=30	=30	=30	=30	=30	=30	=30	=30	=30	=30	=30	=30	=30	=30	=30	=30	=30
!	!LO:TX:b:t=....	!	!	!	!	!	!	!	!	!	!	!	!	!	!	!LO:TX:b:t=7:color=grey	!	!	!	!	!	!	!
1ryy	8gL 8e 8c'/	.	2r	.	.	.	1r	.	.	.	.	1r	.	.	.	1r	.	.	.	4.G\	cze-	noi	.
.	8g 8e 8c'/	.	.	.	.	.	.	.	.	.	.	.	.	.	.	.	.	.	.	.	.	.	.
.	8g 8e 8c'/	.	.	.	.	.	.	.	.	.	.	.	.	.	.	.	.	.	.	.	.	.	.
.	8gJ 8e 8c'/	.	.	.	.	.	.	.	.	.	.	.	.	.	.	.	.	.	.	8C\	-go	quel	.
!	!LO:TX:b:t=....	!	!	!	!	!	!	!	!	!	!	!	!	!	!	!	!	!	!	!	!	!	!
.	8g#XL 8e 8c'/	.	4r	.	.	.	.	.	.	.	.	.	.	.	.	.	.	.	.	4.G#X\	któ-	pe-	.
.	8g# 8e 8c'/	.	.	.	.	.	.	.	.	.	.	.	.	.	.	.	.	.	.	.	.	.	.
!	!	!	!	!	!	!LO:DY:a:rj	!	!	!	!	!	!	!	!	!	!	!	!	!	!	!	!	!
.	8g# 8e 8c'/	.	8C/	bie-	Di-	p	.	.	.	.	.	.	.	.	.	.	.	.	.	.	.	.	.
.	8g#J 8e 8c'/	.	8C/	-rzcie	-te a	.	.	.	.	.	.	.	.	.	.	.	.	.	.	8C\	-rej	-na	.
=31	=31	=31	=31	=31	=31	=31	=31	=31	=31	=31	=31	=31	=31	=31	=31	=31	=31	=31	=31	=31	=31	=31	=31
*	*	*	*	*	*	*	*	*	*	*	*	*	*	*	*	*	*	*	*	*2\left	*	*	*
!	!LO:TX:b:t=....	!	!	!	!	!	!LO:TX:b:t=8:color=grey	!	!	!	!	!LO:TX:b:t=8:color=grey	!	!	!	!	!	!	!	!	!	!	!
1F	8aL 8f 8c'/	.	4.F\	cze-	noi	.	1r	.	.	.	.	1r	.	.	.	2.a/	Któ-	Di-	.	2A\	bra-	v'_an-	.
.	8a 8f 8c'/	.	.	.	.	.	.	.	.	.	.	.	.	.	.	.	.	.	.	.	.	.	.
.	8a 8f 8c'/	.	.	.	.	.	.	.	.	.	.	.	.	.	.	.	.	.	.	.	.	.	.
.	8aJ 8f 8c'/	.	8C\	-go	quel	.	.	.	.	.	.	.	.	.	.	.	.	.	.	.	.	.	.
!	!LO:TX:b:t=....	!	!	!	!	!	!	!	!	!	!	!	!	!	!	!	!	!	!	!	!	!	!
.	8aL 8f 8c'/	.	4.F\	kto-	pe-	.	.	.	.	.	.	.	.	.	.	.	.	.	.	4A\	-knie,	-ge?	.
.	8a 8f 8c'/	.	.	.	.	.	.	.	.	.	.	.	.	.	.	.	.	.	.	.	.	.	.
.	8a 8f 8c'/	.	.	.	.	.	.	.	.	.	.	.	.	.	.	8b/L	-ra	-te	.	4r	.	.	.
.	8aJ 8f 8c'/	.	8E\	-rej	-na	.	.	.	.	.	.	.	.	.	.	8cc/J	.	a	.	.	.	.	.
=32	=32	=32	=32	=32	=32	=32	=32	=32	=32	=32	=32	=32	=32	=32	=32	=32	=32	=32	=32	=32	=32	=32	=32
!	!LO:TX:b:t=....	!	!	!	!	!	!	!	!	!	!	!	!	!	!	!	!	!	!	!	!	!	!
1F 1FF	8ddL 8a 8d'/	.	1F	brak-	v'_an-	.	4r	.	.	.	.	2r	.	.	.	4.dd\	pra-	noi	.	1r	.	.	.
.	8dd 8a 8d'/	.	.	.	.	.	.	.	.	.	.	.	.	.	.	.	.	.	.	.	.	.	.
.	8dd 8a 8d'/	.	.	.	.	.	4A/	a	quel	.	.	.	.	.	.	.	.	.	.	.	.	.	.
.	8ddJ 8a 8d'/	.	.	.	.	.	.	.	.	.	.	.	.	.	.	8a/	-gnie,	quel	.	.	.	.	.
!	!LO:TX:b:t=..	!	!	!	!	!	!	!	!	!	!	!	!	!	!	!	!	!	!	!	!	!	!
.	8ddL 8a 8f'/	.	.	.	.	.	4.f\	któ-	pe-	.	.	4r	.	.	.	4dd\	któ-	pe-	.	.	.	.	.
.	8ddJ 8a 8f'/	.	.	.	.	.	.	.	.	.	.	.	.	.	.	.	.	.	.	.	.	.	.
*	*Xtremolo	*	*	*	*	*	*	*	*	*	*	*	*	*	*	*	*	*	*	*	*	*	*
.	8ccL 8a 8f'/	.	.	.	.	.	.	.	.	.	.	8d/	któ-	di-	.	4cc\	-ra	-na	.	.	.	.	.
.	8ccJ 8a 8e'/	.	.	.	.	.	8e\	-ra	-na	.	.	8d/	-ra	-te	.	.	.	.	.	.	.	.	.
=33	=33	=33	=33	=33	=33	=33	=33	=33	=33	=33	=33	=33	=33	=33	=33	=33	=33	=33	=33	=33	=33	=33	=33
*^	*	*	*	*	*	*	*	*	*	*	*	*	*	*	*	*	*	*	*	*	*	*	*
*	*	*tremolo	*	*	*	*	*	*	*	*	*	*	*	*	*	*	*2\right	*	*	*	*	*	*	*
!	!	!LO:TX:b:t=....	!	!	!	!	!	!	!	!	!	!	!	!	!	!	!	!	!	!	!	!	!	!
4.G/	1GG	8ccL 8g 8d'/	.	4G\	-nie	-ge,	.	2d\	ła-	v_an-	.	.	4.g/	ła-	di-	.	2cc\	łak-	v'_an-	.	1r	.	.	.
.	.	8cc 8g 8d'/	.	.	.	.	.	.	.	.	.	.	.	.	.	.	.	.	.	.	.	.	.	.
.	.	8cc 8g 8d'/	.	4r	.	.	.	.	.	.	.	.	.	.	.	.	.	.	.	.	.	.	.	.
8D/	.	8ccJ 8g 8d'/	.	.	.	.	.	.	.	.	.	.	8d/	-knie,	-te	.	.	.	.	.	.	.	.	.
!	!	!LO:TX:b:t=..	!	!	!	!	!	!	!	!	!	!	!	!	!	!	!	!	!	!	!	!	!	!
4.G/	.	8bL 8g 8d'/	.	4.G\	bie-	che	.	8d\	-knie,	-ge	.	.	4g/	bierz-	che	.	8b\	-nie,	-ge,	.	.	.	.	.
.	.	8bJ 8g 8d'/	.	.	.	.	.	8r	.	.	.	.	.	.	.	.	8r	.	.	.	.	.	.	.
!	!	!LO:TX:b:t=..	!	!	!	!	!	!	!	!	!	!	!	!	!	!	!	!	!	!	!	!	!	!
.	.	8bL 8f#X 8d'/	.	.	.	.	.	4r	.	.	.	.	4f#X/	-cie	vi	.	8b\	bierz-	che	.	.	.	.	.
8D/	.	8bJ 8f# 8d'/	.	8G\	-rzcie	vi	.	.	.	.	.	.	.	.	.	.	8b\	-cie	vi	.	.	.	.	.
*v	*v	*	*	*	*	*	*	*	*	*	*	*	*	*	*	*	*	*	*	*	*	*	*	*
!!LO:LB:g=original
=34	=34	=34	=34	=34	=34	=34	=34	=34	=34	=34	=34	=34	=34	=34	=34	=34	=34	=34	=34	=34	=34	=34	=34
*	*	*	*	*	*	*	*	*	*	*	*	*	*	*	*	*	*	*above	*	*	*	*	*
(<2G#X\	8bL 8fn 8d/	.	2G#X\	cze-	.	.	2d\	cze-	man-	.	.	2fn/	cze-	man-	.	2b\	cze-	man-	.	1r	.	.	.
.	8b 8f 8d/	.	.	.	.	.	.	.	.	.	.	.	.	.	.	.	.	.	.	.	.	.	.
.	8b 8f 8d/	.	.	.	.	.	.	.	.	.	.	.	.	.	.	.	.	.	.	.	.	.	.
.	8bJ 8f 8d/	.	.	.	.	.	.	.	.	.	.	.	.	.	.	.	.	.	.	.	.	.	.
*	*Xtremolo	*	*	*ij	*	*	*	*ij	*	*	*	*	*ij	*	*	*	*	*	*	*	*	*	*
4A\	8ccL 8e 8c/	.	4A\	-go	.	.	4c\	-go	-ca,	.	.	4e/	-go	-ca,	.	4cc\	-go	-ca,	.	.	.	.	.
!	!LO:TX:b:i:t=cres-cen-do.:problem:dynamics with extention lines	!LO:HP:Bi:t=cres-cen-do.	!	!	!	!	!	!	!	!	!	!	!	!	!	!	!	!	!	!	!	!	!
.	8cc 8e/	<	.	.	.	.	.	.	.	.	.	.	.	.	.	.	.	.	.	.	.	.	.
4A#X\	8cc#X 8g 8e/	.	8A#X\	któ-	.	.	8e\	któ-	che	.	.	8g/	któ-	che	.	8cc#X\	któ-	che	.	.	.	.	.
.	8cc#J 8g 8e/	.	8A#\	-rej	.	.	8e\	-rej	v'_af-	.	.	8g/	-rej	v'_af-	.	8cc#\	-rej	v'_af-	.	.	.	.	.
=35	=35	=35	=35	=35	=35	=35	=35	=35	=35	=35	=35	=35	=35	=35	=35	=35	=35	=35	=35	=35	=35	=35	=35
*	*tremolo	*	*	*	*	*	*	*	*	*	*	*	*	*	*	*	*	*	*	*	*	*	*
2B\	8ddL 8g/	.	2B\	bra-	.	.	2d\	bra-	-fran-	.	.	2g/	bra-	-fran-	.	2dd\	bra-	-fran-	.	1r	.	.	.
.	8dd 8g/	.	.	.	.	.	.	.	.	.	.	.	.	.	.	.	.	.	.	.	.	.	.
.	8dd 8g/	.	.	.	.	.	.	.	.	.	.	.	.	.	.	.	.	.	.	.	.	.	.
.	8ddJ 8g/	.	.	.	.	.	.	.	.	.	.	.	.	.	.	.	.	.	.	.	.	.	.
!	!LO:TX:b:t=..	!	!	!	!	!	!	!	!	!	!	!	!	!	!	!	!	!	!	!	!	!	!
4B 4BB\	8dd#XL 8g'/	.	4BB/	-knie,	.	.	4G/	-knie,	-ge?	.	.	4g/	-knie,	-ge?	.	4dd#X\	-knie,	-ge?	.	.	.	.	.
.	8dd#J 8g'/	.	.	.	.	.	.	.	.	.	.	.	.	.	.	.	.	.	.	.	.	.	.
!	!LO:TX:b:t=..	!	!	!	!	!	!	!	!	!	!	!	!	!	!	!	!	!	!	!	!	!	!
4c 4C\	8eeL 8g'/	.	8C/	któ-	.	.	8c\	któ-	che	.	.	8g/	któ-	che	.	8ee\	któ-	che	.	.	.	.	.
.	8eeJ 8g'/	.	8C/	-ra	.	.	8c\	-ra	vi	.	.	8g/	-ra	vi	.	8ee\	-ra	vi	.	.	.	.	.
=36	=36	=36	=36	=36	=36	=36	=36	=36	=36	=36	=36	=36	=36	=36	=36	=36	=36	=36	=36	=36	=36	=36	=36
!	!LO:TX:b:t=..	!	!	!	!	!LO:HP:a	!	!	!	!	!LO:HP:a	!	!	!	!LO:HP:a	!	!	!	!LO:HP:a	!	!	!	!
4B-X 4C#X\	8eeL 8g'/	.	4C#X/	pra-	.	<	4B-X\	pra-	man-	.	<	4g/	pra-	man-	<	4ee\	pra-	man-	<	1r	.	.	.
.	8eeJ 8g'/	.	.	.	.	.	.	.	.	.	.	.	.	.	.	.	.	.	.	.	.	.	.
!	!LO:TX:b:t=..	!	!	!	!	!	!	!	!	!	!	!	!	!	!	!	!	!	!	!	!	!	!
4A 4D\	8ffL 8f'/	.	4D/	-gnie,	.	.	4A\	-gnie,	-ca,	.	.	4f/	-gnie,	-ca,	.	4ff\	-gnie,	-ca,	.	.	.	.	.
.	8ffJ 8f'/	.	.	.	.	.	.	.	.	.	.	.	.	.	.	.	.	.	.	.	.	.	.
!	!LO:TX:b:t=..	!	!	!	!	!	!	!	!	!	!	!	!	!	!	!	!	!	!	!	!	!	!
4A 4E\	8cc#XL 8g'/	.	4E\	któ-	.	.	4A\	któ-	che	.	.	4g/	któ-	che	.	4cc#X\	któ-	che	.	.	.	.	.
.	8cc#J 8g'/	.	.	.	.	.	.	.	.	.	.	.	.	.	.	.	.	.	.	.	.	.	.
!	!LO:TX:b:t=..	!	!	!	!	!	!	!	!	!	!	!	!	!	!	!	!	!	!	!	!	!	!
4d 4A 4F\	8ddL 8a'/	.	4F\	-ra	.	.	4d\	-ra	v'_af-	.	.	4a/	-ra	v'af-	.	4dd\	-ra	v'_af-	.	.	.	.	.
*	*	*	*	*Xij	*	*	*	*Xij	*	*	*	*	*Xij	*	*	*	*	*	*	*	*	*	*
.	8ddJ 8a'/	.	.	.	.	.	.	.	.	.	.	.	.	.	.	.	.	.	.	.	.	.	.
=37	=37	=37	=37	=37	=37	=37	=37	=37	=37	=37	=37	=37	=37	=37	=37	=37	=37	=37	=37	=37	=37	=37	=37
*	*	*	*	*	*	*	*	*	*	*	*	*	*	*	*	*^	*	*	*	*	*	*	*
*tremolo	*	*	*	*	*	*	*	*	*	*	*	*2\right	*	*	*	*	*	*	*	*	*	*	*	*
!LO:TX:a:t=....	!LO:TX:a:t=....	!	!	!	!	!	!	!	!	!	!	!	!	!	!	!	!	!	!	!	!	!	!	!
8d#XL 8F#X'\)	8aaL 8cc'\	.	1G-X	ła	.	.	1e-X	ła	-fran-	.	.	2.cc\	z_was	-fran-	.	2aa\	1ee-X§	łak-	-fran-	.	1r	.	.	.
8d# 8F#'\	8aa 8cc'\	.	.	.	.	.	.	.	.	.	.	.	.	.	.	.	.	.	.	.	.	.	.	.
8d# 8F#'\	8aa 8cc'\	.	.	.	.	.	.	.	.	.	.	.	.	.	.	.	.	.	.	.	.	.	.	.
8d#J 8F#'\	8aaJ 8cc'\	.	.	.	.	.	.	.	.	.	.	.	.	.	.	.	.	.	.	.	.	.	.	.
!LO:TX:a:t=....	!LO:TX:a:t=....	!	!	!	!	!	!	!	!	!	!	!	!	!	!	!	!	!	!	!	!	!	!	!
8e-XL 8G-X'\	8aa-XL 8cc'\	[	.	.	.	[	.	.	.	.	[	.	.	.	[	[2aa-X\	.	.	.	[	.	.	.	.
8e- 8G-'\	8aa- 8cc'\	.	.	.	.	.	.	.	.	.	.	.	.	.	.	.	.	.	.	.	.	.	.	.
8e- 8G-'\	8aa- 8cc'\	.	.	.	.	.	.	.	.	.	.	8cc\	któ-	-ge,	.	.	.	.	.	.	.	.	.	.
!	!LO:TX:b:t=V&colon; S&colon;	!	!	!	!	!	!	!	!	!	!	!	!	!	!	!	!LO:TX:b:t=V&colon; S&colon;	!	!	!	!	!	!	!
8e-J 8G-'\	8aa-J 8cc'\	.	.	.	.	.	.	.	.	.	.	8cc\	-ra	che	.	.	.	.	.	.	.	.	.	.
*	*	*	*	*	*	*	*	*	*	*	*	*	*	*	*	*v	*v	*	*	*	*	*	*	*
!!LO:PB:g=original
=38	=38	=38	=38	=38	=38	=38	=38	=38	=38	=38	=38	=38	=38	=38	=38	=38	=38	=38	=38	=38	=38	=38	=38
*	*	*	*	*	*	*	*	*	*	*	*	*	*	*	*	*	*	*below	*	*	*	*	*
!LO:TX:a:t=....	!LO:TX:a:t=....	!LO:DY:rj	!	!	!	!LO:DY:a:rj	!	!	!	!	!LO:DY:b:rj	!	!	!	!LO:DY:a:rj	!	!	!	!LO:DY:a	!	!	!	!
8FL 8D-X 8FF'\	8aa-XL 8dd-X 8a-X'\	ff	2F\	bierz-	ge	ff	2d-X\	bierz-	-ge	.	ff	4dd-X\	pra-	v'_af-	ff	2aa-\]	.	.	ff	1r	.	.	.
8F 8D- 8FF'\	8aa- 8dd- 8a-'\	.	.	.	.	.	.	.	.	.	.	.	.	.	.	.	.	.	.	.	.	.	.
8F 8D- 8FF'\	8aa- 8dd- 8a-'\	.	.	.	.	.	.	.	.	.	.	2a-X/	-gnie,	-fran-	.	.	.	.	.	.	.	.	.
8FJ 8D- 8FF'\	8aa-J 8dd- 8a-'\	.	.	.	.	.	.	.	.	.	.	.	.	.	.	.	.	.	.	.	.	.	.
!LO:TX:a:t=....	!LO:TX:a:t=....	!	!	!	!	!	!	!	!	!	!	!	!	!	!	!	!	!	!	!	!	!	!
8E-XL 8AA-X 8EE-X'\	8gg-XL 8cc 8a-'\	.	2E-X\	-cie	di-	.	4c\	-cie,	di-	.	.	.	.	.	.	2gg-X\	-nie	-ge,	.	.	.	.	.
8E- 8AA- 8EE-'\	8gg- 8cc 8a-'\	.	.	.	.	.	.	.	.	.	.	.	.	.	.	.	.	.	.	.	.	.	.
!	!	!	!	!	!	!LO:HP:a	!	!	!	!	!LO:HP:a	!	!	!	!LO:HP:a	!	!	!	!LO:HP:a	!	!	!	!
8E- 8AA- 8EE-'\	8gg- 8cc 8a-'\	>	.	.	.	>	8A-X\	bierz-	-te	.	>	8a-/	któ-	-ge	>	.	.	.	>	.	.	.	.
8E-J 8AA- 8EE-'\	8gg-J 8cc 8a-'\	.	.	.	.	.	8A-\	-cie.	.	.	.	8a-/	-ra	quel	.	.	.	.	.	.	.	.	.
*Xtremolo	*	*	*	*	*	*	*	*	*	*	*	*	*	*	*	*	*	*	*	*	*	*	*
=39	=39	=39	=39	=39	=39	=39	=39	=39	=39	=39	=39	=39	=39	=39	=39	=39	=39	=39	=39	=39	=39	=39	=39
!	!LO:TX:a:t=..	!	!	!	!	!	!	!	!	!	!	!	!	!	!	!	!	!	!	!	!	!	!
4D-X 4DD-X/	8ffL 8dd-X 8a-X 8f'\	.	4D-X/	cze-	-te	.	2.f\	Któ-	di-	.	.	(4a-X/	łak-	pe-	.	(4ff\	bierz-	di-	.	1r	.	.	.
.	8ffJ 8dd- 8a- 8f'\	.	.	.	.	.	.	.	.	.	.	.	.	.	.	.	.	.	.	.	.	.	.
!	!LO:TX:a:t=..	!	!	!	!	!	!	!	!	!	!	!	!	!	!	!	!	!	!	!	!	!	!
4C-X 4CC-X/	8ee-XL 8an 8f'\	.	4C-X/	-go	quel	.	.	.	.	.	.	4an/)	.	.	.	4ee-X\	.	.	.	.	.	.	.
.	8ee-J 8a 8f'\	.	.	.	.	.	.	.	.	.	.	.	.	.	.	.	.	.	.	.	.	.	.
!	!LO:TX:b:t=..	!	!	!	!	!	!	!	!	!	!	!	!	!	!	!	!	!	!	!	!	!	!
4BB-X 4BBB-X/	8dd-L 8b-X 8f 8d'/	.	4BB-X/	któ-	pe-	.	.	.	.	.	.	4b-X/	-nie	-na	.	4dd\)	.	.	.	.	.	.	.
.	8dd-J 8b- 8f 8d'/	.	.	.	.	.	.	.	.	.	.	.	.	.	.	.	.	.	.	.	.	.	.
!	!LO:TX:b:t=..	!	!	!	!	!	!	!	!	!	!	!	!	!	!	!	!	!	!	!	!	!	!
4AA-X 4AAA-X/	8ccL 8f#X 8d'/	.	4AA-X/	-rej	-na	.	4f#X\	-rej	-te a	.	]]	8d/	bierz-	di-	.	4cc\	-cie	-te_a	.	.	.	.	.
.	8ccJ 8f# 8d'/	]	.	.	.	]	.	.	.	.	.	8d/	-cie	-te a	]	.	.	.	]	.	.	.	.
*	*Xtremolo	*	*	*	*	*	*	*	*	*	*	*	*	*	*	*	*	*	*	*	*	*	*
=40	=40	=40	=40	=40	=40	=40	=40	=40	=40	=40	=40	=40	=40	=40	=40	=40	=40	=40	=40	=40	=40	=40	=40
*^	*^	*	*	*	*	*	*	*	*	*	*	*	*	*	*	*	*	*	*	*	*	*	*
*	*	*	*^	*	*	*	*	*	*	*	*	*	*	*	*	*	*	*	*	*	*	*	*	*	*
!	!	!	!	!	!LO:DY:rj	!	!	!	!LO:DY:a:rj	!	!	!	!	!LO:DY:a:rj	!	!	!	!LO:DY:a:rj	!	!	!	!LO:DY:a:rj	!	!	!	!
4d>\	8GGL 8GGG/	(4b/	2g\	2g/	p	[>1GG	brak-	v'_an	p	4g\	cze-	noi	.	p	4d/	cze-	noi	p	4b\	któ-	noi	p	1r	.	.	.
.	8G\J	.	.	.	.	.	.	.	.	.	.	.	.	.	.	.	.	.	.	.	.	.	.	.	.	.
4e/	8G\L	4cc/	.	.	.	.	.	.	.	4e\	-go	quel	.	.	4e/	-go	quel	.	4cc\	-rej	quel	.	.	.	.	.
.	8G\J	.	.	.	.	.	.	.	.	.	.	.	.	.	.	.	.	.	.	.	.	.	.	.	.	.
*	*tremolo	*	*	*	*	*	*	*	*	*	*	*	*	*	*	*	*	*	*	*	*	*	*	*	*	*
4c/	8G\L	4ff/	4a\	2ryy	.	.	.	.	.	4c\	któ-	pe-	.	.	4a/	kto-	pe-	.	4ff\	cze-	pe-	.	.	.	.	.
.	8G\	.	.	.	.	.	.	.	.	.	.	.	.	.	.	.	.	.	.	.	.	.	.	.	.	.
4c#X/	8G\	4ee/	4b-X 4g\	.	.	.	.	.	.	4c#X\	-rej	-na	.	.	4g/	-rej	-na	.	4ee\	-go	-na	.	.	.	.	.
.	8G\J	.	.	.	.	.	.	.	.	.	.	.	.	.	.	.	.	.	.	.	.	.	.	.	.	.
*	*	*	*v	*v	*	*	*	*	*	*	*	*	*	*	*	*	*	*	*	*	*	*	*	*	*	*
=41	=41	=41	=41	=41	=41	=41	=41	=41	=41	=41	=41	=41	=41	=41	=41	=41	=41	=41	=41	=41	=41	=41	=41	=41	=41
4d/	8G\L	4a/	1dd 1f	.	1GG]	.	.	.	(4d\	brak-	v'_an-	.	.	1f	brak-	v'_an	.	1dd	brak-	v'_an-	.	1r	.	.	.
.	8G\	.	.	.	.	.	.	.	.	.	.	.	.	.	.	.	.	.	.	.	.	.	.	.	.
2c/	8G\	4a-X/	.	.	.	.	.	.	2c\	.	.	.	.	.	.	.	.	.	.	.	.	.	.	.	.
.	8G\J	.	.	.	.	.	.	.	.	.	.	.	.	.	.	.	.	.	.	.	.	.	.	.	.
.	8G\L	2g/)	.	.	.	.	.	.	.	.	.	.	.	.	.	.	.	.	.	.	.	.	.	.	.
.	8G\	.	.	.	.	.	.	.	.	.	.	.	.	.	.	.	.	.	.	.	.	.	.	.	.
4B/	8G\	.	.	.	.	.	.	.	4B\)	.	.	.	.	.	.	.	.	.	.	.	.	.	.	.	.
.	8G\J	.	.	.	.	.	.	.	.	.	.	.	.	.	.	.	.	.	.	.	.	.	.	.	.
*	*Xtremolo	*	*	*	*	*	*	*	*	*	*	*	*	*	*	*	*	*	*	*	*	*	*	*	*
*v	*v	*	*	*	*	*	*	*	*	*	*	*	*	*	*	*	*	*	*	*	*	*	*	*	*
*	*v	*v	*	*	*	*	*	*	*	*	*	*	*	*	*	*	*	*	*	*	*	*	*	*
!!LO:LB:g=original
=42	=42	=42	=42	=42	=42	=42	=42	=42	=42	=42	=42	=42	=42	=42	=42	=42	=42	=42	=42	=42	=42	=42	=42
8c 8C\	8cc 8e/	.	4C/	-nie.	.	.	4c\	-nie.	-ge!	.	.	4e/	-nie.	.	.	4cc\	-nie.	-ge!	.	1r	.	.	.
*	*clefF4	*	*	*	*	*	*	*	*above	*	*	*	*	*	*	*	*	*	*	*	*	*	*
!	!	!LO:DY:rj	!	!	!	!	!	!	!	!	!	!	!	!	!	!	!	!	!	!	!	!	!
8r	(16GLL 16E\	pp	.	.	.	.	.	.	.	.	.	.	.	.	.	.	.	.	.	.	.	.	.
.	16c\JJ	.	.	.	.	.	.	.	.	.	.	.	.	.	.	.	.	.	.	.	.	.	.
(8.EE^>/L	16GLL 16E\	.	4r	.	.	.	4r	.	.	.	.	4r	.	.	.	4r	.	.	.	.	.	.	.
.	16c\	.	.	.	.	.	.	.	.	.	.	.	.	.	.	.	.	.	.	.	.	.	.
.	16G 16E\	.	.	.	.	.	.	.	.	.	.	.	.	.	.	.	.	.	.	.	.	.	.
16FF/Jk	16c\JJ	.	.	.	.	.	.	.	.	.	.	.	.	.	.	.	.	.	.	.	.	.	.
*	*tremolo	*	*	*	*	*	*	*	*	*	*	*	*	*	*	*	*	*	*	*	*	*	*
8GG/)	16GLL 16E\	.	2r	.	.	.	4r	.	.	.	.	2r	.	.	.	2r	.	.	.	.	.	.	.
.	16c\	.	.	.	.	.	.	.	.	.	.	.	.	.	.	.	.	.	.	.	.	.	.
8r	16G 16E\	.	.	.	.	.	.	.	.	.	.	.	.	.	.	.	.	.	.	.	.	.	.
.	16c\	.	.	.	.	.	.	.	.	.	.	.	.	.	.	.	.	.	.	.	.	.	.
!	!	!	!	!	!	!	!	!	!	!	!LO:DY:a	!	!	!	!	!	!	!	!	!	!	!	!
8CC/	16G 16E\	.	.	.	.	.	8C/	Cie-	Nel	.	pp	.	.	.	.	.	.	.	.	.	.	.	.
.	16c\	.	.	.	.	.	.	.	.	.	.	.	.	.	.	.	.	.	.	.	.	.	.
8ryy	16G 16E\	.	.	.	.	.	8C/	-mno	si-	.	.	.	.	.	.	.	.	.	.	.	.	.	.
.	16c\JJ	.	.	.	.	.	.	.	.	.	.	.	.	.	.	.	.	.	.	.	.	.	.
=43	=43	=43	=43	=43	=43	=43	=43	=43	=43	=43	=43	=43	=43	=43	=43	=43	=43	=43	=43	=43	=43	=43	=43
(1CC#X	16B-X\LL	.	1r	.	.	.	(1C#X	wszę-	-len-	.	.	1r	.	.	.	1r	.	.	.	1r	.	.	.
.	16F\	.	.	.	.	.	.	.	.	.	.	.	.	.	.	.	.	.	.	.	.	.	.
.	16B-\	.	.	.	.	.	.	.	.	.	.	.	.	.	.	.	.	.	.	.	.	.	.
.	16F\	.	.	.	.	.	.	.	.	.	.	.	.	.	.	.	.	.	.	.	.	.	.
.	16B-\	.	.	.	.	.	.	.	.	.	.	.	.	.	.	.	.	.	.	.	.	.	.
.	16F\	.	.	.	.	.	.	.	.	.	.	.	.	.	.	.	.	.	.	.	.	.	.
.	16B-\	.	.	.	.	.	.	.	.	.	.	.	.	.	.	.	.	.	.	.	.	.	.
.	16F\JJ	.	.	.	.	.	.	.	.	.	.	.	.	.	.	.	.	.	.	.	.	.	.
.	16ALL 16G\	.	.	.	.	.	.	.	.	.	.	.	.	.	.	.	.	.	.	.	.	.	.
.	16E\	.	.	.	.	.	.	.	.	.	.	.	.	.	.	.	.	.	.	.	.	.	.
.	16A 16G\	.	.	.	.	.	.	.	.	.	.	.	.	.	.	.	.	.	.	.	.	.	.
.	16E\	.	.	.	.	.	.	.	.	.	.	.	.	.	.	.	.	.	.	.	.	.	.
.	16A 16G\	.	.	.	.	.	.	.	.	.	.	.	.	.	.	.	.	.	.	.	.	.	.
.	16E\	.	.	.	.	.	.	.	.	.	.	.	.	.	.	.	.	.	.	.	.	.	.
.	16A 16G\	.	.	.	.	.	.	.	.	.	.	.	.	.	.	.	.	.	.	.	.	.	.
.	16E\JJ)	.	.	.	.	.	.	.	.	.	.	.	.	.	.	.	.	.	.	.	.	.	.
=44	=44	=44	=44	=44	=44	=44	=44	=44	=44	=44	=44	=44	=44	=44	=44	=44	=44	=44	=44	=44	=44	=44	=44
8DD/)	(16ALL 16F#X\	.	2r	.	.	.	4D/)	-dzie!	-te	.	.	1r	.	.	.	1r	.	.	.	1r	.	.	.
.	16D\	.	.	.	.	.	.	.	.	.	.	.	.	.	.	.	.	.	.	.	.	.	.
8r	16A 16F#\	.	.	.	.	.	.	.	.	.	.	.	.	.	.	.	.	.	.	.	.	.	.
.	16D\	.	.	.	.	.	.	.	.	.	.	.	.	.	.	.	.	.	.	.	.	.	.
(8.D\L	16A 16F#\	.	.	.	.	.	4r	.	.	.	.	.	.	.	.	.	.	.	.	.	.	.	.
.	16D\	.	.	.	.	.	.	.	.	.	.	.	.	.	.	.	.	.	.	.	.	.	.
.	16A 16F#\	.	.	.	.	.	.	.	.	.	.	.	.	.	.	.	.	.	.	.	.	.	.
16E\Jk	16D\JJ	.	.	.	.	.	.	.	.	.	.	.	.	.	.	.	.	.	.	.	.	.	.
8Fn\)	16B\LL	.	4r	.	.	.	2r	.	.	.	.	.	.	.	.	.	.	.	.	.	.	.	.
.	16D\	.	.	.	.	.	.	.	.	.	.	.	.	.	.	.	.	.	.	.	.	.	.
8r	16B\	.	.	.	.	.	.	.	.	.	.	.	.	.	.	.	.	.	.	.	.	.	.
.	16D\	.	.	.	.	.	.	.	.	.	.	.	.	.	.	.	.	.	.	.	.	.	.
8GG/	16B\	.	8GG/	głu-	te-	.	.	.	.	.	.	.	.	.	.	.	.	.	.	.	.	.	.
.	16D\	.	.	.	.	.	.	.	.	.	.	.	.	.	.	.	.	.	.	.	.	.	.
8r	16B\	.	8GG/	-cho-	-ne-	.	.	.	.	.	.	.	.	.	.	.	.	.	.	.	.	.	.
.	16D\JJ	.	.	.	.	.	.	.	.	.	.	.	.	.	.	.	.	.	.	.	.	.	.
=45	=45	=45	=45	=45	=45	=45	=45	=45	=45	=45	=45	=45	=45	=45	=45	=45	=45	=45	=45	=45	=45	=45	=45
(1GG#X (1GGG#X	16cLL 16F\	.	1GG#X	-wszę-	-bro-	.	1r	.	.	.	.	1r	.	.	.	1r	.	.	.	1r	.	.	.
.	16C\	.	.	.	.	.	.	.	.	.	.	.	.	.	.	.	.	.	.	.	.	.	.
.	16c 16F\	.	.	.	.	.	.	.	.	.	.	.	.	.	.	.	.	.	.	.	.	.	.
.	16C\	.	.	.	.	.	.	.	.	.	.	.	.	.	.	.	.	.	.	.	.	.	.
.	16c 16F\	.	.	.	.	.	.	.	.	.	.	.	.	.	.	.	.	.	.	.	.	.	.
.	16C\	.	.	.	.	.	.	.	.	.	.	.	.	.	.	.	.	.	.	.	.	.	.
.	16c 16F\	.	.	.	.	.	.	.	.	.	.	.	.	.	.	.	.	.	.	.	.	.	.
.	16C\JJ	.	.	.	.	.	.	.	.	.	.	.	.	.	.	.	.	.	.	.	.	.	.
*	*Xtremolo	*	*	*	*	*	*	*	*	*	*	*	*	*	*	*	*	*	*	*	*	*	*
.	16BLL 16F\	.	.	.	.	.	.	.	.	.	.	.	.	.	.	.	.	.	.	.	.	.	.
.	16D\	.	.	.	.	.	.	.	.	.	.	.	.	.	.	.	.	.	.	.	.	.	.
.	16B 16F\	.	.	.	.	.	.	.	.	.	.	.	.	.	.	.	.	.	.	.	.	.	.
.	16D\JJ	.	.	.	.	.	.	.	.	.	.	.	.	.	.	.	.	.	.	.	.	.	.
.	16BLL 16E\	.	.	.	.	.	.	.	.	.	.	.	.	.	.	.	.	.	.	.	.	.	.
.	16D\	.	.	.	.	.	.	.	.	.	.	.	.	.	.	.	.	.	.	.	.	.	.
.	16B 16E\	.	.	.	.	.	.	.	.	.	.	.	.	.	.	.	.	.	.	.	.	.	.
.	16D\JJ)	.	.	.	.	.	.	.	.	.	.	.	.	.	.	.	.	.	.	.	.	.	.
!!LO:PB:g=original
=46	=46	=46	=46	=46	=46	=46	=46	=46	=46	=46	=46	=46	=46	=46	=46	=46	=46	=46	=46	=46	=46	=46	=46
*	*^	*	*	*	*	*	*	*	*	*	*	*	*	*	*	*	*	*	*	*	*	*	*
*	*	*	*	*	*	*	*	*	*	*below	*	*	*	*	*	*	*	*	*	*	*	*	*	*
!LO:TX:t=P:problem:brak zakończenia łuków	!	!	!	!	!	!	!	!	!	!	!	!	!	!	!	!	!	!	!	!	!	!	!	!
4AA 4AAA/))	(4A/	16E\LL	<	4AA/	-dzie	-re	.	2r	.	.	.	.	4r	.	.	.	1r	.	.	.	1r	.	.	.
.	.	16C\	.	.	.	.	.	.	.	.	.	.	.	.	.	.	.	.	.	.	.	.	.	.
.	.	16E\	.	.	.	.	.	.	.	.	.	.	.	.	.	.	.	.	.	.	.	.	.	.
.	.	16C\JJ	.	.	.	.	.	.	.	.	.	.	.	.	.	.	.	.	.	.	.	.	.	.
!	!	!	!	!	!	!	!	!	!	!	!	!	!	!	!	!LO:DY:a	!	!	!	!	!	!	!	!
8.EE/L	4G#X/	16E\LL	.	4r	.	.	.	.	.	.	.	.	8e/	Co	che av-	pp	.	.	.	.	.	.	.	.
.	.	16BB\	.	.	.	.	.	.	.	.	.	.	.	.	.	.	.	.	.	.	.	.	.	.
.	.	16E\	.	.	.	.	.	.	.	.	.	.	8e/	to	-ver-	.	.	.	.	.	.	.	.	.
16EE/Jk	.	16BB\JJ	.	.	.	.	.	.	.	.	.	.	.	.	.	.	.	.	.	.	.	.	.	.
4AA/	4A 4F#X/	16E\LL	.	2r	.	.	.	4r	.	.	.	.	2e/	bę-	-ra-	.	.	.	.	.	.	.	.	.
.	.	16C\	.	.	.	.	.	.	.	.	.	.	.	.	.	.	.	.	.	.	.	.	.	.
.	.	16E\	.	.	.	.	.	.	.	.	.	.	.	.	.	.	.	.	.	.	.	.	.	.
.	.	16C\JJ	.	.	.	.	.	.	.	.	.	.	.	.	.	.	.	.	.	.	.	.	.	.
!	!	!	!	!	!	!	!	!	!	!	!	!LO:DY:a	!	!	!	!	!	!	!	!	!	!	!	!
4EE/	4B/	16G#X\LL	.	.	.	.	.	8E/	co	che av-	.	pp	.	.	.	.	.	.	.	.	.	.	.	.
.	.	16E\	.	.	.	.	.	.	.	.	.	.	.	.	.	.	.	.	.	.	.	.	.	.
.	.	16G#\	.	.	.	.	.	8E/	to	-ver-	.	.	.	.	.	.	.	.	.	.	.	.	.	.
.	.	[>16E\JJ	[[	.	.	.	.	.	.	.	.	.	.	.	.	.	.	.	.	.	.	.	.	.
*	*v	*v	*	*	*	*	*	*	*	*	*	*	*	*	*	*	*	*	*	*	*	*	*	*
=47	=47	=47	=47	=47	=47	=47	=47	=47	=47	=47	=47	=47	=47	=47	=47	=47	=47	=47	=47	=47	=47	=47	=47
*tremolo	*	*	*	*	*	*	*	*	*	*	*	*	*	*	*	*	*	*	*	*	*	*	*
!	!LO:TX:b:i:t=rallentando.	!	!	!	!	!	!	!	!	!	!	!	!	!	!	!	!	!	!	!	!	!	!
32CC/LLL	2c 2A 2E] 2C\	>	2r	.	.	.	(2A/	bę-	-ra	.	.	(2c/	.	.	.	4r	.	.	.	1r	.	.	.
32EE/	.	.	.	.	.	.	.	.	.	.	.	.	.	.	.	.	.	.	.	.	.	.	.
32CC/	.	.	.	.	.	.	.	.	.	.	.	.	.	.	.	.	.	.	.	.	.	.	.
32EE/	.	.	.	.	.	.	.	.	.	.	.	.	.	.	.	.	.	.	.	.	.	.	.
32CC/	.	.	.	.	.	.	.	.	.	.	.	.	.	.	.	.	.	.	.	.	.	.	.
32EE/	.	.	.	.	.	.	.	.	.	.	.	.	.	.	.	.	.	.	.	.	.	.	.
32CC/	.	.	.	.	.	.	.	.	.	.	.	.	.	.	.	.	.	.	.	.	.	.	.
32EE/	.	.	.	.	.	.	.	.	.	.	.	.	.	.	.	.	.	.	.	.	.	.	.
!	!	!	!	!	!	!	!	!	!	!	!	!	!	!	!	!	!	!	!LO:DY:a	!	!	!	!
32CC/	.	.	.	.	.	.	.	.	.	.	.	.	.	.	.	8e/	co	che av-	pp	.	.	.	.
32EE/	.	.	.	.	.	.	.	.	.	.	.	.	.	.	.	.	.	.	.	.	.	.	.
32CC/	.	.	.	.	.	.	.	.	.	.	.	.	.	.	.	.	.	.	.	.	.	.	.
32EE/	.	.	.	.	.	.	.	.	.	.	.	.	.	.	.	.	.	.	.	.	.	.	.
32CC/	.	.	.	.	.	.	.	.	.	.	.	.	.	.	.	8e/	to	-ver-	.	.	.	.	.
32EE/	.	.	.	.	.	.	.	.	.	.	.	.	.	.	.	.	.	.	.	.	.	.	.
32CC/	.	.	.	.	.	.	.	.	.	.	.	.	.	.	.	.	.	.	.	.	.	.	.
32EE/JJJ	.	.	.	.	.	.	.	.	.	.	.	.	.	.	.	.	.	.	.	.	.	.	.
32CC/LLL	4B 4G#X 4E 4BB\	.	4r	.	.	.	4G#X/	.	mai?	.	.	4B/	.	-mai?	.	2e/	bę-	-ra	.	.	.	.	.
32EE/	.	.	.	.	.	.	.	.	.	.	.	.	.	.	.	.	.	.	.	.	.	.	.
32CC/	.	.	.	.	.	.	.	.	.	.	.	.	.	.	.	.	.	.	.	.	.	.	.
32EE/	.	.	.	.	.	.	.	.	.	.	.	.	.	.	.	.	.	.	.	.	.	.	.
32CC/	.	.	.	.	.	.	.	.	.	.	.	.	.	.	.	.	.	.	.	.	.	.	.
32EE/	.	.	.	.	.	.	.	.	.	.	.	.	.	.	.	.	.	.	.	.	.	.	.
32CC/	.	.	.	.	.	.	.	.	.	.	.	.	.	.	.	.	.	.	.	.	.	.	.
32EE/	.	.	.	.	.	.	.	.	.	.	.	.	.	.	.	.	.	.	.	.	.	.	.
!	!	!	!	!	!	!LO:DY:a	!	!	!	!	!	!	!	!	!	!	!	!	!	!	!	!	!
32CC/	4A 4F#X 4E 4C 4AA\	.	8AA/	co	che av-	pp	4F#X/)	.	.	.	.	4A/)	.	.	.	.	.	.	.	.	.	.	.
32EE/	.	.	.	.	.	.	.	.	.	.	.	.	.	.	.	.	.	.	.	.	.	.	.
32CC/	.	.	.	.	.	.	.	.	.	.	.	.	.	.	.	.	.	.	.	.	.	.	.
32EE/	.	.	.	.	.	.	.	.	.	.	.	.	.	.	.	.	.	.	.	.	.	.	.
32CC/	.	.	8AA/	to	-ver-	.	.	.	.	.	.	.	.	.	.	.	.	.	.	.	.	.	.
32EE/	.	.	.	.	.	.	.	.	.	.	.	.	.	.	.	.	.	.	.	.	.	.	.
32CC/	.	.	.	.	.	.	.	.	.	.	.	.	.	.	.	.	.	.	.	.	.	.	.
32EE/JJJ	.	]]	.	.	.	.	.	.	.	.	.	.	.	.	.	.	.	.	.	.	.	.	.
=48	=48	=48	=48	=48	=48	=48	=48	=48	=48	=48	=48	=48	=48	=48	=48	=48	=48	=48	=48	=48	=48	=48	=48
32EEE/LLL	(2B 2G#X 2E 2BB\)	.	1E	bę-	-ra	.	[1E	-dzie!	.	.	.	4e/	-dzie!	.	.	4e/	-dzie!	mai?	.	1r	.	.	.
32EE/	.	.	.	.	.	.	.	.	.	.	.	.	.	.	.	.	.	.	.	.	.	.	.
32EEE/	.	.	.	.	.	.	.	.	.	.	.	.	.	.	.	.	.	.	.	.	.	.	.
32EE/	.	.	.	.	.	.	.	.	.	.	.	.	.	.	.	.	.	.	.	.	.	.	.
32EEE/	.	.	.	.	.	.	.	.	.	.	.	.	.	.	.	.	.	.	.	.	.	.	.
32EE/	.	.	.	.	.	.	.	.	.	.	.	.	.	.	.	.	.	.	.	.	.	.	.
32EEE/	.	.	.	.	.	.	.	.	.	.	.	.	.	.	.	.	.	.	.	.	.	.	.
32EE/	.	.	.	.	.	.	.	.	.	.	.	.	.	.	.	.	.	.	.	.	.	.	.
32EEE/	.	.	.	.	.	.	.	.	.	.	.	4r	.	.	.	4r	.	.	.	.	.	.	.
32EE/	.	.	.	.	.	.	.	.	.	.	.	.	.	.	.	.	.	.	.	.	.	.	.
32EEE/	.	.	.	.	.	.	.	.	.	.	.	.	.	.	.	.	.	.	.	.	.	.	.
32EE/	.	.	.	.	.	.	.	.	.	.	.	.	.	.	.	.	.	.	.	.	.	.	.
32EEE/	.	.	.	.	.	.	.	.	.	.	.	.	.	.	.	.	.	.	.	.	.	.	.
32EE/	.	.	.	.	.	.	.	.	.	.	.	.	.	.	.	.	.	.	.	.	.	.	.
32EEE/	.	.	.	.	.	.	.	.	.	.	.	.	.	.	.	.	.	.	.	.	.	.	.
32EE/JJJ	.	.	.	.	.	.	.	.	.	.	.	.	.	.	.	.	.	.	.	.	.	.	.
32EEE/LLL	4B 4G# 4E 4BB'\	.	.	.	.	.	.	.	.	.	.	2r	.	.	.	2r	.	.	.	.	.	.	.
32EE/	.	.	.	.	.	.	.	.	.	.	.	.	.	.	.	.	.	.	.	.	.	.	.
32EEE/	.	.	.	.	.	.	.	.	.	.	.	.	.	.	.	.	.	.	.	.	.	.	.
32EE/	.	.	.	.	.	.	.	.	.	.	.	.	.	.	.	.	.	.	.	.	.	.	.
32EEE/	.	.	.	.	.	.	.	.	.	.	.	.	.	.	.	.	.	.	.	.	.	.	.
32EE/	.	.	.	.	.	.	.	.	.	.	.	.	.	.	.	.	.	.	.	.	.	.	.
32EEE/	.	.	.	.	.	.	.	.	.	.	.	.	.	.	.	.	.	.	.	.	.	.	.
32EE/	.	.	.	.	.	.	.	.	.	.	.	.	.	.	.	.	.	.	.	.	.	.	.
32EEE/	4B 4G# 4E 4BB'\)	.	.	.	.	.	.	.	.	.	.	.	.	.	.	.	.	.	.	.	.	.	.
32EE/	.	.	.	.	.	.	.	.	.	.	.	.	.	.	.	.	.	.	.	.	.	.	.
32EEE/	.	.	.	.	.	.	.	.	.	.	.	.	.	.	.	.	.	.	.	.	.	.	.
32EE/	.	.	.	.	.	.	.	.	.	.	.	.	.	.	.	.	.	.	.	.	.	.	.
32EEE/	.	.	.	.	.	.	.	.	.	.	.	.	.	.	.	.	.	.	.	.	.	.	.
32EE/	.	.	.	.	.	.	.	.	.	.	.	.	.	.	.	.	.	.	.	.	.	.	.
32EEE/	.	.	.	.	.	.	.	.	.	.	.	.	.	.	.	.	.	.	.	.	.	.	.
32EE/JJJ	.	.	.	.	.	.	.	.	.	.	.	.	.	.	.	.	.	.	.	.	.	.	.
!!LO:LB:g=original
=49	=49	=49	=49	=49	=49	=49	=49	=49	=49	=49	=49	=49	=49	=49	=49	=49	=49	=49	=49	=49	=49	=49	=49
!	!	!LO:DY:rj	!	!	!	!	!	!	!	!	!	!	!	!	!	!	!	!	!	!	!	!	!
32EEE/LLL	([2.e [2.B [2.G#X\	ppp	4E 4EE/	-dzie	mai?	.	4E/]	.	.	.	.	1r	.	.	.	1r	.	.	.	1r	.	.	.
32EE/	.	.	.	.	.	.	.	.	.	.	.	.	.	.	.	.	.	.	.	.	.	.	.
32EEE/	.	.	.	.	.	.	.	.	.	.	.	.	.	.	.	.	.	.	.	.	.	.	.
32EE/	.	.	.	.	.	.	.	.	.	.	.	.	.	.	.	.	.	.	.	.	.	.	.
32EEE/	.	.	.	.	.	.	.	.	.	.	.	.	.	.	.	.	.	.	.	.	.	.	.
32EE/	.	.	.	.	.	.	.	.	.	.	.	.	.	.	.	.	.	.	.	.	.	.	.
32EEE/	.	.	.	.	.	.	.	.	.	.	.	.	.	.	.	.	.	.	.	.	.	.	.
32EE/	.	.	.	.	.	.	.	.	.	.	.	.	.	.	.	.	.	.	.	.	.	.	.
32EEE/	.	.	4r	.	.	.	4r	.	.	.	.	.	.	.	.	.	.	.	.	.	.	.	.
32EE/	.	.	.	.	.	.	.	.	.	.	.	.	.	.	.	.	.	.	.	.	.	.	.
32EEE/	.	.	.	.	.	.	.	.	.	.	.	.	.	.	.	.	.	.	.	.	.	.	.
32EE/	.	.	.	.	.	.	.	.	.	.	.	.	.	.	.	.	.	.	.	.	.	.	.
32EEE/	.	.	.	.	.	.	.	.	.	.	.	.	.	.	.	.	.	.	.	.	.	.	.
32EE/	.	.	.	.	.	.	.	.	.	.	.	.	.	.	.	.	.	.	.	.	.	.	.
32EEE/	.	.	.	.	.	.	.	.	.	.	.	.	.	.	.	.	.	.	.	.	.	.	.
32EE/JJJ	.	.	.	.	.	.	.	.	.	.	.	.	.	.	.	.	.	.	.	.	.	.	.
32EEE/LLL	.	.	2r	.	.	.	2r	.	.	.	.	.	.	.	.	.	.	.	.	.	.	.	.
32EE/	.	.	.	.	.	.	.	.	.	.	.	.	.	.	.	.	.	.	.	.	.	.	.
32EEE/	.	.	.	.	.	.	.	.	.	.	.	.	.	.	.	.	.	.	.	.	.	.	.
32EE/	.	.	.	.	.	.	.	.	.	.	.	.	.	.	.	.	.	.	.	.	.	.	.
32EEE/	.	.	.	.	.	.	.	.	.	.	.	.	.	.	.	.	.	.	.	.	.	.	.
32EE/	.	.	.	.	.	.	.	.	.	.	.	.	.	.	.	.	.	.	.	.	.	.	.
32EEE/	.	.	.	.	.	.	.	.	.	.	.	.	.	.	.	.	.	.	.	.	.	.	.
32EE/	.	.	.	.	.	.	.	.	.	.	.	.	.	.	.	.	.	.	.	.	.	.	.
32EEE/	8e]L 8B] 8G#\]	.	.	.	.	.	.	.	.	.	.	.	.	.	.	.	.	.	.	.	.	.	.
32EE/	.	.	.	.	.	.	.	.	.	.	.	.	.	.	.	.	.	.	.	.	.	.	.
32EEE/	.	.	.	.	.	.	.	.	.	.	.	.	.	.	.	.	.	.	.	.	.	.	.
32EE/	.	.	.	.	.	.	.	.	.	.	.	.	.	.	.	.	.	.	.	.	.	.	.
32EEE/	8BJ 8G#\	.	.	.	.	.	.	.	.	.	.	.	.	.	.	.	.	.	.	.	.	.	.
32EE/	.	.	.	.	.	.	.	.	.	.	.	.	.	.	.	.	.	.	.	.	.	.	.
32EEE/	.	.	.	.	.	.	.	.	.	.	.	.	.	.	.	.	.	.	.	.	.	.	.
32EE/JJJ	.	.	.	.	.	.	.	.	.	.	.	.	.	.	.	.	.	.	.	.	.	.	.
*Xtremolo	*	*	*	*	*	*	*	*	*	*	*	*	*	*	*	*	*	*	*	*	*	*	*
=50	=50	=50	=50	=50	=50	=50	=50	=50	=50	=50	=50	=50	=50	=50	=50	=50	=50	=50	=50	=50	=50	=50	=50
!LO:TX:t=P:problem:fermata pod kreską taktową	!	!	!	!	!	!	!LO:TX:a:t=fine	!	!	!	!	!	!	!	!	!	!	!	!	!LO:TX:t=P:problem:fermata nad kreską taktową	!	!	!
1EE;	1G#X 1E;)	.	1r;	.	.	.	1r;	.	.	.	.	1r;	.	.	.	1r;	.	.	.	1r;	.	.	.
==	==	==	==	==	==	==	==	==	==	==	==	==	==	==	==	==	==	==	==	==	==	==	==
*-	*-	*-	*-	*-	*-	*-	*-	*-	*-	*-	*-	*-	*-	*-	*-	*-	*-	*-	*-	*-	*-	*-	*-
!!!system-decoration: s1[g1][(s6,s7)]
!!!RDF**kern: > = above
!!!RDF**kern: < = below
!!!RDF**kern: | = vertical stroke
!!!RDF**dynam: f = "f."
!!!RDF**dynam: ff = "ff."
!!!RDF**dynam: ppp = "ppp."
!!!RDF**dynam: p = "p."
!!!RDF**kern: @ = marked note, color=red
!!!RDF**kern: § = marked note, color=grey
!!!AIN: 5 empty 1 vox
!!!ENC: Anastazja Marusiak
!!!END: 2021-09-20
!!!ENC: Andrzej Kubiczek
!!!END: 2021-10-12
